!!!COM: Claude Goudimel
!!!OMD: Psalm 29: Vous tous, Princes et Seigneurs
**kern	**kern	**kern	**kern
*part4	*part3	*part2	*part1
*staff4	*staff3	*staff2	*staff1
*clefF4	*clefGv2	*clefG2	*clefG2
*k[f#c#]	*k[f#c#]	*k[f#c#]	*k[f#c#]
!!LO:TX:omd:t=
*M4/4	*M4/4	*M4/4	*M4/4
=1	=1	=1	=1
2D	2d	2f#	2a
2GG	2d	2g	2b
=2	=2	=2	=2
4D	4d	4f#	4a
4BB	4d	4g	4b
2AA	2e	2a	2cc#
=3	=3	=3	=3
2D	2f#	2a	2dd
2D	2d	2f#	2a
=4	=4	=4	=4
2r	2r	2r	2r
2D	2f#	2a	2dd
=5	=5	=5	=5
2AA	2e	2a	2cc#
4E	4e	4g#X	4b
4D	4f#	4a	4dd
=6	=6	=6	=6
4E	4e	4a	4cc#
4E	4e	4g#X	4b
2AA	2c#	2a	2a
=7	=7	=7	=7
2r	2r	2r	2r
2D	2d	2f#	2a
=8	=8	=8	=8
4D	4A	4d	4f#
2GG	2B	2d	2b
4D	4d	4f#	4a
=9	=9	=9	=9
4E	4B	4e	4g
4D	4A	4d	4f#
2AA	2A	2c#	2e
=10	=10	=10	=10
2r	2r	2r	2r
2D	2A	2f#	2f#
=11	=11	=11	=11
4E	4G	4B	4g
2D	2F#	2d	2a
4GG	4B	4d	4g
=12	=12	=12	=12
4AA	4A	4d	4f#
4AA	4A	4c#	4e
2D	2A	2d	2d
=13	=13	=13	=13
2r	2r	2r	2r
2D	2F#	2A	2d
=14	=14	=14	=14
2D	2d	2f#	2a
4AA	4c#	4e	4a
4D	4d	4A	4f#
=15	=15	=15	=15
4E	4B	4e	4g
4F#	2A	4c#	4a
2E	.	2e	2b
.	4G#X	.	.
=16	=16	=16	=16
2AA	2A	2e	2a
2r	2r	2r	2r
=17	=17	=17	=17
2D	2F#	2A	2d
2D	2d	2f#	2a
=18	=18	=18	=18
4AA	4c#	4e	4a
4D	4d	4A	4f#
4E	4B	4e	4g
4F#	[4A	4c#	4a
=19	=19	=19	=19
2E	4A]	2e	2b
.	4G#X	.	.
2AA	2A	2e	2a
=20	=20	=20	=20
2r	2r	2r	2r
2AA	2e	2a	2a
=21	=21	=21	=21
2E	2e	2g#X	2b
4D	4f#	4a	4dd
4AA	4e	4a	4cc#
=22	=22	=22	=22
4BB	4d	4gn	4b
4D	4d	4f#	4a
2E	2B	2e	2g
=23	=23	=23	=23
2BB	2B	2e-X	2f#
2r	2r	2r	2r
=24	=24	=24	=24
2BB	2F#	2B	2d
4BB	4B	4d	4f#
[4AA	[4cn	[4en	[4a
=25	=25	=25	=25
4AA]	4c]	4e]	4a]
4AA	4A	4c#	4e
4GG	4B	4d	4g
4D	4A	[4d	4f#
=26	=26	=26	=26
2AA	2A	4d]	2e
.	.	4c#	.
[2D	[2A	[2d	[2d
=27	=27	=27	=27
2D]	2A]	2d]	2d]
2ryy	2ryy	2ryy	2ryy
==	==	==	==
*-	*-	*-	*-
!!!software: music21 v.9.7.1
!!!software: music21 v.8.3.0
!!!RDF**kern: > = above
!!!RDF**kern: < = below
